public/assets/images/icons/blue/group.svg

<svg width="16" height="16" xmlns="http://www.w3.org/2000/svg" viewBox="0 0 16 16" shape-rendering="geometricPrecision" fill="#24437c"><path d="M14.625 6.406c-.281-.844-3.277.058-5.172.453-.673.141.552-1.619 1.235-2.89.398-.742-.031-1-2.375-1.031C5.969 2.906 1.489 4.244 1.062 7.5c-.438 3.344 2.625 6.031 7.594 5.344 5.95-.823 6.164-5.853 5.969-6.438zm-12.109.453a.922.922 0 1 1 1.845 0 .922.922 0 0 1-1.845 0zm1.375 4.004a1.03 1.03 0 1 1 0-2.062 1.03 1.03 0 0 1 0 2.062zm1.031-5.832a.75.75 0 1 1 1.5 0 .75.75 0 0 1-1.5 0zm2.328 6.998a1.174 1.174 0 1 1-.267-2.334 1.174 1.174 0 0 1 .267 2.334zm3.246-.563a1.174 1.174 0 1 1-.267-2.334 1.174 1.174 0 0 1 .267 2.334zm2.146-2.242a.803.803 0 1 1-.18-1.596.803.803 0 0 1 .18 1.596z"/></svg>

<?xml version="1.0"?><!DOCTYPE svg PUBLIC "-//W3C//DTD SVG 1.1//EN" "http://www.w3.org/Graphics/SVG/1.1/DTD/svg11.dtd"><svg width="16px" height="16px" xmlns="http://www.w3.org/2000/svg" viewBox="0 0 16 16" shape-rendering="geometricPrecision" fill="#24437c"><g><path d="M14.625,6.406c-0.281-0.844-3.277,0.058-5.172,0.453C8.78,7,10.005,5.24,10.688,3.969 c0.398-0.742-0.031-1-2.375-1.031C5.969,2.906,1.489,4.244,1.062,7.5c-0.438,3.344,2.625,6.031,7.594,5.344 C14.606,12.021,14.82,6.991,14.625,6.406z M2.516,6.859c0-0.509,0.413-0.922,0.922-0.922c0.509,0,0.922,0.413,0.922,0.922 c0,0.509-0.413,0.922-0.922,0.922C2.928,7.781,2.516,7.369,2.516,6.859z M3.891,10.863c-0.57,0-1.031-0.462-1.031-1.031 c0-0.57,0.462-1.031,1.031-1.031c0.57,0,1.031,0.462,1.031,1.031C4.922,10.401,4.46,10.863,3.891,10.863z M4.922,5.031 c0-0.414,0.336-0.75,0.75-0.75c0.414,0,0.75,0.336,0.75,0.75c0,0.414-0.336,0.75-0.75,0.75C5.258,5.781,4.922,5.445,4.922,5.031z M7.25,12.029c-0.644,0.074-1.226-0.389-1.3-1.033c-0.074-0.644,0.389-1.226,1.033-1.3c0.644-0.074,1.226,0.389,1.3,1.033 C8.356,11.374,7.894,11.955,7.25,12.029z M10.496,11.466c-0.644,0.074-1.226-0.389-1.3-1.033c-0.074-0.644,0.389-1.226,1.033-1.3 c0.644-0.074,1.226,0.389,1.3,1.033C11.602,10.81,11.14,11.392,10.496,11.466z M12.642,9.224c-0.44,0.05-0.837-0.266-0.888-0.706 c-0.05-0.44,0.266-0.837,0.706-0.888c0.44-0.05,0.838,0.266,0.888,0.706C13.398,8.776,13.082,9.173,12.642,9.224z"/></g></svg>
